symbols/web/60fps_select/materialsymbolssharp/60fps_select_wght300_40px.svg

<svg xmlns="http://www.w3.org/2000/svg" height="40" width="40"><path d="M7.75 22.5v-15h10.083v2.083h-8v4.375h8V22.5Zm2.083-2.083h5.917v-4.375H9.833ZM22.208 22.5v-15h10.084v15Zm2.084-2.083h5.875V9.583h-5.875ZM5.708 36.25V29h2.084v7.25Zm5.334 0V29h2.083v7.25Zm5.333 0V29H18.5v7.25Zm5.375 0V29h12.542v7.25Z"/></svg>

<svg xmlns="http://www.w3.org/2000/svg" height="40" width="40"><path d="M7.75 22.5V7.5H17.833V9.583H9.833V13.958H17.833V22.5ZM9.833 20.417H15.75V16.042H9.833ZM22.208 22.5V7.5H32.292V22.5ZM24.292 20.417H30.167V9.583H24.292ZM5.708 36.25V29H7.792V36.25ZM11.042 36.25V29H13.125V36.25ZM16.375 36.25V29H18.5V36.25ZM21.75 36.25V29H34.292V36.25Z"/></svg>
